!!!OTL: 435. Nach Sevilla!
!!!COM: L. Reichardt
!!!ODT: 1815 (vor)
!!!ARE: Europa, Mitteleuropa, Deutschland
!!!SCT: B0435
!!!TXL: @@DE
!!!YEM: Copyright 1995, estate of Helmut Schaffrath.
**kern	**text
*ICvox	*
*Ivox	*
*clefG2	*
*M4/4	*
*clefG2	*
*k[f#c#]	*
*D:	*
!LO:TX:a:t=Gemäßigt.	!
{8.a	Nach
16a	Se-
=1	=1
4a	-vil-
4f#	-la,
4r	.
8.dd	nach
16dd	Se-
=2	=2
4dd	-vil-
4a	-la,
4r}	.
{8dd	wo
8cc#	die
=3	=3
4.b	ho-
8a	-hen
4g	Prachtge-
8aL	.
8bJ	.
=4	=4
4b	-bäu-
4a	-de
4r}	.
{8a	in
8dd	den
=5	=5
8ddL	brei-
8cc#J	.
8bL	-ten
8aJ	.
4.a	Stra-
8g	-ßen
=6	=6
4g	ſteh-
4f#	-en,
4r}	.
{8f#	aus
8f#	den
=7	=7
4.b	Fenſtern
8cc	.
4b	rei-
4a	-che
=8	=8
4a	Leu-
4g}	-te,
{4.ee	ſchön
8b	ge-
=9	=9
4.a	-putʒ-
8b	-te
4.a	Frau-
8g	-en
=10	=10
4g	ſeh-
8f#	-en
8r}	.
{4dd	da-
4a	-hin
=11	=11
4b	ſehnt
4g	mein
4e	Herʒ
4a	ſich
=12	=12
4f#	ſehr,
4r}	.
{4a	da-
4dd	-hin
=13	=13
4b	ſehnt
4ee	mein
4dd	Herʒ
4cc#	ſich
=14	=14
2dd	ſehr!
4r}	.
==	==
!!!AGN: Liebes - Lied, Liebes - Lust
!!!GTL: Liebeslieder - Liebeslust
!!!ONB: ESAC (Essen Associative Code) Database: BOEHME
!!!AMT: simple quadruple
!!!AIN: vox
!!!EED: Helmut Schaffrath
!!!EEV: 1.0
!!Luiſe Reichardt. Vor 1815.
!!@@COMMENT:"Gedicht, 1801 von Clemens Brentano in ſeinem Luſtſpiel: "Ponce de Leon Ʒuerſt
!!gedruckt Hemburg 1804."
!!@@END:
!!!Text: C. Brentano
!!!URL-scan: https://archive.org/details/BoehmeVtLieder1895/page/n353/mode/2up
!!!ENC: Anna Maria Matuszewska
!!!EEV: 2024/09/07
*-	*-
